assets/svg/logo/logo.svg

<svg id="Layer_1" data-name="Layer 1" xmlns="http://www.w3.org/2000/svg" xmlns:xlink="http://www.w3.org/1999/xlink" viewBox="0 0 200 200"><defs><style>.cls-1{fill:none;}.cls-2{clip-path:url(#clip-path);}.cls-3{fill:#fff;}</style><clipPath id="clip-path"><rect class="cls-1" width="200" height="200"/></clipPath></defs><title>logo</title><g class="cls-2"><rect class="cls-3" width="200" height="200"/><path d="M59.8,41.7H89.5V145.9h64.4v24.2H59.8Z"/><path d="M150.6,53.2v6.1H126.3V54.5l12.4-11.7a16.24,16.24,0,0,0,2.7-3.2,5.44,5.44,0,0,0,.7-2.7,3.24,3.24,0,0,0-1.3-2.9,5.93,5.93,0,0,0-3.8-1.1,9.21,9.21,0,0,0-3.8.8,6.46,6.46,0,0,0-2.8,2.4L125,32.6a13.19,13.19,0,0,1,5.2-4.4,16.67,16.67,0,0,1,7.6-1.6,14.59,14.59,0,0,1,6.2,1.2,10,10,0,0,1,4.2,3.3,8.45,8.45,0,0,1,1.5,5,11.7,11.7,0,0,1-1.1,4.9,18.25,18.25,0,0,1-4.3,5.2l-7.4,7Z"/><path d="M0,0V200H200V0ZM186.21,186.21H13.79V13.79H186.21Z"/></g></svg>

<?xml version="1.0" encoding="utf-8"?>
<!-- Generator: Adobe Illustrator 22.1.0, SVG Export Plug-In . SVG Version: 6.00 Build 0)  -->
<svg version="1.1" id="Layer_1" xmlns="http://www.w3.org/2000/svg" xmlns:xlink="http://www.w3.org/1999/xlink" x="0px" y="0px"
	 viewBox="0 0 200 200" style="enable-background:new 0 0 200 200;" xml:space="preserve">
<style type="text/css">
	.st0{clip-path:url(#SVGID_2_);}
	.st1{fill:#FFFFFF;}
	.st2{fill:#121111;}
</style>
<title>logo</title>
<g>
	<g>
		<defs>
			<rect id="SVGID_1_" width="200" height="200"/>
		</defs>
		<clipPath id="SVGID_2_">
			<use xlink:href="#SVGID_1_"  style="overflow:visible;"/>
		</clipPath>
		<g class="st0">
			<rect class="st1" width="200" height="200"/>
			<path class="st2" d="M59.8,41.7h29.7v104.2h64.4v24.2H59.8V41.7z"/>
			<path class="st2" d="M150.6,53.2v6.1h-24.3v-4.8l12.4-11.7c1-0.9,1.9-2,2.7-3.2c0.5-0.8,0.7-1.8,0.7-2.7c0.1-1.1-0.4-2.2-1.3-2.9
				c-1.1-0.8-2.4-1.2-3.8-1.1c-1.3,0-2.6,0.3-3.8,0.8c-1.1,0.5-2.1,1.3-2.8,2.4l-5.4-3.5c1.3-1.9,3.1-3.4,5.2-4.4
				c2.4-1.1,5-1.7,7.6-1.6c2.1-0.1,4.2,0.4,6.2,1.2c1.7,0.7,3.1,1.8,4.2,3.3c1,1.5,1.5,3.2,1.5,5c0,1.7-0.4,3.4-1.1,4.9
				c-1.1,2-2.6,3.7-4.3,5.2l-7.4,7H150.6z"/>
			<path class="st2" d="M0,0v200h200V0H0z M186.2,186.2H13.8V13.8h172.4V186.2z"/>
		</g>
	</g>
</g>
</svg>
